X: 12909
T: Fiach's Fancy
R: reel
M: 4/4
K: Gmajor
DG G2 GABc|d2 ba gedB|eA A2 ABAG|FG (3 AGF DEFA|
G2 BG ABcA|BcdB cdec|dGBd gdBd|cedc BGFE|
DG G2 GABc|dg g2 gfed|eA A2 ABAG|FGAF DEFA|
G2 BG ABcA|BcdB cdec|(3 Bcd ^cd gBdB|cedc Bdef||
gG G2 dGBd|gabg agfg|de e2 abag|(3 efg af defa|
bagb agfa|gfeg fedf|edce dcBd|cedc Bdef|
g2 GB dGBd|gabg agfg|de e2 abag|(3 efg af defa|
bdgb adfa|gceg fAdf|eAce dGBd|cedc BG G2||

